X:142
T:Valse d'Hiver
C:Danielle Martineau
L:1/8
M:3/4
K:D
Bc |: d2 dc de | f2 fe df | a2 af df | e3d ef |
ge Ge ge | fd Fd fd | cB G2 (3EGE |  F4 Bc |
d2 dc de | f2 fe df | ad' af df | e3d ef |
ge Ge ge | f2 bc'd'b |  c'b gf cd |1 (B4B)c :|2 B4 E2 ||
E2 AB cd | ec BA Bc | de fa df | e3f ec |
de fd Bd| cA cf af | Bf af Bf | e4 E2 |
E2 AB cd | ec BA Bc| de fa df | e3f ec |
de fd Bd | cA cf ac | dc BA FE | F4 E2 |
E2 AB cd | ec BA Bc | de fa df | e3f ec |
de fd Bd | cA cf af | Bf af Bf | ef ed cB |
A3B cd | ec BA Bc| de fa df | e3f ec |
de fd Bd | cA cf ac | dc BA FE |F6 ||
